src/assets/filled/BagCross.svg

<svg width="24" height="24" viewBox="0 0 24 24"  xmlns="http://www.w3.org/2000/svg">
<path d="M19.96 8.96039C19.29 8.22039 18.28 7.79039 16.88 7.64039V6.88039C16.88 5.51039 16.3 4.19039 15.28 3.27039C14.25 2.33039 12.91 1.89039 11.52 2.02039C9.12999 2.25039 7.11999 4.56039 7.11999 7.06039V7.64039C5.71999 7.79039 4.70999 8.22039 4.03999 8.96039C3.06999 10.0404 3.09999 11.4804 3.20999 12.4804L3.90999 18.0504C4.11999 20.0004 4.90999 22.0004 9.20999 22.0004H14.79C19.09 22.0004 19.88 20.0004 20.09 18.0604L20.79 12.4704C20.9 11.4804 20.93 10.0404 19.96 8.96039ZM11.66 3.41039C12.66 3.32039 13.61 3.63039 14.35 4.30039C15.08 4.96039 15.49 5.90039 15.49 6.88039V7.58039H8.50999V7.06039C8.50999 5.28039 9.97999 3.57039 11.66 3.41039ZM12 18.5804C9.90999 18.5804 8.20999 16.8804 8.20999 14.7904C8.20999 12.7004 9.90999 11.0004 12 11.0004C14.09 11.0004 15.79 12.7004 15.79 14.7904C15.79 16.8804 14.09 18.5804 12 18.5804Z" />
<path d="M13.6001 15.3102L13.0701 14.7802L13.5701 14.2802C13.8601 13.9902 13.8601 13.5102 13.5701 13.2202C13.2801 12.9302 12.8001 12.9302 12.5101 13.2202L12.0101 13.7202L11.4801 13.1902C11.1901 12.9002 10.7101 12.9002 10.4201 13.1902C10.1301 13.4802 10.1301 13.9602 10.4201 14.2502L10.9501 14.7802L10.4001 15.3302C10.1101 15.6202 10.1101 16.1002 10.4001 16.3902C10.5501 16.5402 10.7401 16.6102 10.9301 16.6102C11.1201 16.6102 11.3101 16.5402 11.4601 16.3902L12.0101 15.8402L12.5401 16.3702C12.6901 16.5202 12.8801 16.5902 13.0701 16.5902C13.2601 16.5902 13.4501 16.5202 13.6001 16.3702C13.8901 16.0802 13.8901 15.6102 13.6001 15.3102Z" />
</svg>

<?xml version="1.0" encoding="UTF-8"?>
<svg width="24" height="24" viewBox="0 0 24 24" xmlns="http://www.w3.org/2000/svg">
 <path d="m19.96 8.9604c-0.67-0.74-1.68-1.17-3.08-1.32v-0.76c0-1.37-0.58-2.69-1.6-3.61-1.03-0.94-2.37-1.38-3.76-1.25-2.39 0.23-4.4 2.54-4.4 5.04v0.58c-1.4 0.15-2.41 0.58-3.08 1.32-0.97 1.08-0.94 2.52-0.83 3.52l0.7 5.57c0.21 1.95 1 3.95 5.3 3.95h5.58c4.3 0 5.09-2 5.3-3.94l0.7-5.59c0.11-0.99 0.14-2.43-0.83-3.51zm-8.3-5.55c1-0.09 1.95 0.22 2.69 0.89 0.73 0.66 1.14 1.6 1.14 2.58v0.7h-6.98v-0.52c0-1.78 1.47-3.49 3.15-3.65zm0.34 15.17c-2.09 0-3.79-1.7-3.79-3.79s1.7-3.79 3.79-3.79c2.09 0 3.79 1.7 3.79 3.79s-1.7 3.79-3.79 3.79z"/>
 <path d="m13.6 15.31-0.53-0.53 0.5-0.5c0.29-0.29 0.29-0.77 0-1.06s-0.77-0.29-1.06 0l-0.5 0.5-0.53-0.53c-0.29-0.29-0.77-0.29-1.06 0s-0.29 0.77 0 1.06l0.53 0.53-0.55 0.55c-0.29 0.29-0.29 0.77 0 1.06 0.15 0.15 0.34 0.22 0.53 0.22s0.38-0.07 0.53-0.22l0.55-0.55 0.53 0.53c0.15 0.15 0.34 0.22 0.53 0.22s0.38-0.07 0.53-0.22c0.29-0.29 0.29-0.76 0-1.06z"/>
</svg>
